X:23
T: Das Maedchen und der Faehnrich
N: Q0127D
O: Mitteleuropa, Deutschland / Frankreich, Lothringen
N: Taktart entsprechend der Takteinteilung als 6/8 bezeichnet.
R: Ballade, verbotene Liebe, Flucht
M: 6/8
L: 1/16
K: G
D2 | D2G2G2G4B2 | d4c2B4
d2 | c4ccA2G2B2 | c4d2A4
DD | D4G2F4B2 | d4d2B4
d2 | d2c2c2A2B2c2 | c4d2B4

@@@ Tune index: 1521
